X: 39258
T: Tailgating The Minister
R: reel
M: 4/4
K: Gmajor
|:fgBg egB/c/d|c2BG AGEF|G2GF GAde|A2AG FABd|
fgBg egB/c/d|c2BG AGEF|G2GF GAde|AGFA G2Bd:|

